polaris-icons/icons/ThumbsDownMajor.svg

<svg viewBox="0 0 20 20" xmlns="http://www.w3.org/2000/svg">
<path fill-rule="evenodd" d="M12.1602 4.90431C10.6763 4.22421 9.05709 3.89095 7.42527 3.9298L7.03385 3.93912C5.19515 3.9829 3.65958 5.35371 3.40828 7.17567L3.07059 9.62391C2.84265 11.2764 4.12663 12.7497 5.7948 12.7497H7.38921C7.53764 12.7497 7.65337 12.8782 7.63784 13.0258L7.50527 14.2852C7.32442 16.0033 8.67156 17.4997 10.3991 17.4997H10.7633C11.2628 17.4997 11.6909 17.1424 11.7802 16.6509L11.8353 16.348C12.0603 15.1108 12.7441 14.0042 13.75 13.2497H15.75C16.4404 13.2497 17 12.69 17 11.9997V6.49967C17 5.80931 16.4404 5.24967 15.75 5.24967L13.4048 5.24967C13.0812 5.24967 12.7614 5.17988 12.4673 5.04506L12.1602 4.90431ZM7.46097 5.42938C8.8651 5.39595 10.2584 5.68271 11.5352 6.26791L11.8423 6.40866C12.2093 6.57689 12.6003 6.68437 13 6.72776L13 11.9506C12.9484 11.9804 12.8984 12.0133 12.8504 12.0494C11.5636 13.0145 10.6819 14.4225 10.3746 15.9995C9.54941 15.9855 8.91026 15.2665 8.99703 14.4422L9.1296 13.1829C9.23836 12.1496 8.42819 11.2497 7.38921 11.2497H5.7948C5.03654 11.2497 4.45291 10.58 4.55652 9.82887L4.89421 7.38063C5.04499 6.28745 5.96633 5.46497 7.06955 5.4387L7.46097 5.42938ZM14.5 11.7497H15.5V6.74967H14.5L14.5 11.7497Z" fill="#5C5F62"/>
</svg>

<svg viewBox="0 0 20 20" xmlns="http://www.w3.org/2000/svg"><path fill-rule="evenodd" d="M12.16 4.904a10.75 10.75 0 0 0-4.735-.974l-.391.01a3.75 3.75 0 0 0-3.626 3.236l-.337 2.448a2.75 2.75 0 0 0 2.724 3.126h1.594a.25.25 0 0 1 .249.276l-.133 1.26a2.91 2.91 0 0 0 2.894 3.214h.364c.5 0 .928-.358 1.017-.85l.055-.302a4.989 4.989 0 0 1 1.915-3.098h2c.69 0 1.25-.56 1.25-1.25v-5.5c0-.69-.56-1.25-1.25-1.25h-2.345a2.25 2.25 0 0 1-.938-.205l-.307-.14Zm-4.699.525a9.25 9.25 0 0 1 4.074.839l.307.14a3.75 3.75 0 0 0 1.158.32v5.223c-.052.03-.102.062-.15.098a6.49 6.49 0 0 0-2.475 3.95 1.41 1.41 0 0 1-1.378-1.557l.133-1.26a1.75 1.75 0 0 0-1.74-1.932h-1.595a1.25 1.25 0 0 1-1.238-1.421l.337-2.448a2.25 2.25 0 0 1 2.176-1.942l.391-.01Zm7.039 6.32h1v-5h-1v5Z" fill="#5C5F62"/></svg>
